public/images/logo.svg

<?xml version="1.0" encoding="UTF-8"?>
<svg width="58px" height="50.2px" viewBox="0 0 254 219" version="1.1" xmlns="http://www.w3.org/2000/svg" xmlns:xlink="http://www.w3.org/1999/xlink">
    <g id="Adonis---Branding" stroke="none" stroke-width="1" fill="none" fill-rule="evenodd">
        <g id="512---Play-Store-Copy" transform="translate(-129.000000, -141.000000)" fill="#FFFFFF">
            <g id="Group">
                <g id="Group-3" transform="translate(129.000000, 140.800000)">
                    <path d="M81,128.2 L190,128.2 L135,19.2 L81,128.2 Z M136,0.2 L204,137.2 L67,137.2 L136,0.2 Z" id="Shape" fill-rule="nonzero"></path>
                    <polygon id="Shape" points="101 8.2 152 110.2 50 110.2"></polygon>
                    <path d="M12.1845418,218.484789 L0.194669596,218.484789 L15.1681966,179.807782 L25.4452299,179.807782 L40.805527,218.484789 L28.4841376,218.484789 L25.9977586,212.020203 L14.5051622,212.020203 L12.1845418,218.484789 Z M20.3619662,192.073918 L16.3285068,202.958733 L24.0639083,202.958733 L20.3619662,192.073918 Z M68.8187308,218.484789 L50.6405374,218.484789 L50.6405374,179.807782 L68.8187308,179.807782 C80.0903157,179.807782 88.4887515,188.482482 88.4887515,199.146285 C88.4887515,209.865341 80.0903157,218.484789 68.8187308,218.484789 Z M67.2163976,189.753298 L62.2436395,189.753298 L62.2436395,208.539273 L67.2163976,208.539273 C73.1837073,208.539273 76.8856494,204.83733 76.8856494,199.146285 C76.8856494,193.399987 73.1837073,189.698045 67.2163976,189.753298 Z M119.154093,219.09257 C106.114416,219.09257 98.268509,209.920594 98.268509,199.146285 C98.268509,188.371976 106.114416,179.2 119.154093,179.2 C132.19377,179.2 140.039677,188.371976 140.039677,199.146285 C140.039677,209.920594 132.19377,219.09257 119.154093,219.09257 Z M119.154093,209.147054 C125.06615,209.147054 128.436575,204.561066 128.436575,199.146285 C128.436575,193.731504 125.06615,189.145516 119.154093,189.145516 C113.242036,189.145516 109.871611,193.731504 109.871611,199.146285 C109.871611,204.561066 113.242036,209.147054 119.154093,209.147054 Z M176.285558,218.484789 L185.291775,218.484789 L185.291775,179.807782 L173.688673,179.807782 L173.688673,197.930722 L160.814755,179.807782 L151.753285,179.807782 L151.753285,218.484789 L163.356387,218.484789 L163.356387,200.030331 L176.285558,218.484789 Z M210.542335,179.807782 L198.939233,179.807782 L198.939233,218.484789 L210.542335,218.484789 L210.542335,179.807782 Z M221.81392,206.992192 C222.97423,214.782847 229.052046,219.09257 238.00301,219.09257 C246.401446,219.09257 253.80533,215.335375 253.80533,207.102698 C253.639572,201.632664 250.932181,197.875469 242.312734,194.891814 L238.00301,193.399987 C235.627137,192.571194 234.853597,191.576642 234.853597,190.471585 C234.853597,188.813999 236.621689,188.040459 238.500286,188.040459 C241.26293,188.040459 242.367987,189.753298 243.141527,191.908159 L252.424009,189.256022 C250.213894,182.791436 245.572653,179.2 238.279275,179.2 C229.825586,179.2 223.526759,184.006999 223.526759,191.466137 C223.637265,199.698814 233.030252,202.185193 234.90885,202.792974 L239.273826,204.45056 C242.03647,205.334606 242.533745,206.550169 242.533745,207.489468 C242.533745,209.368066 240.655148,210.252111 238.00301,210.252111 C234.190563,210.252111 231.925195,208.373514 231.151655,204.83733 L221.81392,206.992192 Z" id="ADONIS"></path>
                </g>
            </g>
        </g>
    </g>
</svg>

<?xml version="1.0" encoding="UTF-8"?><svg width="58px" height="50.2px" viewBox="0 0 254 219" xmlns="http://www.w3.org/2000/svg" xmlns:xlink="http://www.w3.org/1999/xlink"><g transform="translate(0 -.2)" fill="#FFFFFF" fill-rule="evenodd"><path d="M81 128.2h109l-55-109-54 109zm55-128l68 137H67l69-137z" fill-rule="nonzero"/><path d="M101 8.2l51 102H50M12.185 218.485H.195l14.973-38.677h10.277l15.36 38.677h-12.32l-2.487-6.465H14.505l-2.32 6.465zm8.177-26.41l-4.033 10.884h7.734l-3.702-10.886zm48.457 26.41H50.64v-38.677h18.18c11.27 0 19.67 8.674 19.67 19.338 0 10.72-8.4 19.34-19.67 19.34zm-1.604-28.732h-4.972v18.786h4.972c5.968 0 9.67-3.703 9.67-9.394 0-5.746-3.702-9.448-9.67-9.393zm51.938 29.34c-13.04 0-20.885-9.172-20.885-19.947 0-10.774 7.844-19.946 20.884-19.946s20.886 9.172 20.886 19.946c0 10.775-7.846 19.947-20.886 19.947zm0-9.946c5.912 0 9.283-4.586 9.283-10 0-5.415-3.37-10-9.283-10-5.912 0-9.282 4.585-9.282 10 0 5.414 3.37 10 9.282 10zm57.132 9.338h9.006v-38.677H173.69v18.123l-12.875-18.122h-9.062v38.677h11.603V200.03l12.93 18.455zm34.256-38.677H198.94v38.677h11.602v-38.677zm11.272 27.184c1.16 7.79 7.238 12.1 16.19 12.1 8.397 0 15.8-3.757 15.8-11.99-.164-5.47-2.872-9.227-11.49-12.21l-4.31-1.492c-2.377-.83-3.15-1.823-3.15-2.928 0-1.658 1.768-2.432 3.646-2.432 2.763 0 3.868 1.713 4.642 3.868l9.282-2.652c-2.21-6.465-6.85-10.056-14.145-10.056-8.454 0-14.753 4.807-14.753 12.266.11 8.233 9.503 10.72 11.382 11.327l4.364 1.658c2.762.885 3.26 2.1 3.26 3.04 0 1.878-1.88 2.762-4.53 2.762-3.813 0-6.08-1.878-6.852-5.415l-9.338 2.155z"/></g></svg>
